img/logo.svg

<svg width="85" height="31" viewBox="0 0 85 31" fill="none" xmlns="http://www.w3.org/2000/svg">
<g clip-path="url(#clip0_1:4)">
<path d="M43.8839 10.2679L47.9278 10.0112C48.0201 10.6605 48.1892 11.1437 48.466 11.491C48.9119 12.0346 49.527 12.3064 50.3419 12.3064C50.9416 12.3064 51.4182 12.1705 51.7411 11.8836C52.0487 11.6571 52.2332 11.2947 52.2332 10.9172C52.2332 10.5548 52.064 10.2075 51.7719 9.98101C51.4644 9.70921 50.7417 9.43742 49.6038 9.19582C47.7433 8.78812 46.4056 8.24453 45.6214 7.54993C44.8372 6.90064 44.3913 5.94935 44.422 4.93766C44.422 4.24307 44.6373 3.54847 45.0371 2.97468C45.4984 2.32538 46.1288 1.81199 46.8822 1.52509C47.6972 1.1778 48.835 0.996597 50.265 0.996597C52.0179 0.996597 53.3557 1.31369 54.2782 1.96299C55.2008 2.59718 55.7544 3.62397 55.9235 5.02826L51.9257 5.25476C51.818 4.65076 51.6028 4.21287 51.2491 3.92597C50.8954 3.63907 50.4342 3.50317 49.8345 3.50317C49.3424 3.50317 48.9734 3.60887 48.7274 3.80517C48.4967 3.98637 48.343 4.25817 48.3584 4.56016C48.3584 4.78666 48.4814 4.99806 48.6659 5.13396C48.8658 5.31516 49.3424 5.48125 50.0959 5.63225C51.9564 6.02485 53.2788 6.41744 54.0937 6.82514C54.9087 7.23284 55.493 7.73113 55.8466 8.32003C56.2156 8.92402 56.4002 9.61861 56.3848 10.3283C56.3848 11.1739 56.1388 12.0195 55.6467 12.7292C55.1393 13.4691 54.432 14.0429 53.6017 14.3902C52.7252 14.7677 51.6181 14.964 50.2958 14.964C47.9586 14.964 46.3441 14.5261 45.4369 13.6352C44.5297 12.7443 43.9915 11.6269 43.8839 10.2679ZM0.968705 14.7375V1.23819H8.05716C9.36415 1.23819 10.379 1.34389 11.0709 1.57039C11.7475 1.78179 12.3471 2.21969 12.7469 2.80858C13.1928 3.45787 13.4081 4.21287 13.3927 4.99806C13.4389 6.32685 12.7469 7.59523 11.563 8.25963C11.1017 8.51632 10.5942 8.69752 10.0715 8.78812C10.4559 8.89382 10.8403 9.07502 11.1785 9.28642C11.4399 9.49781 11.6552 9.73941 11.8551 9.99611C12.0857 10.2528 12.2856 10.5397 12.4548 10.8417L14.5152 14.7526H9.68705L7.41136 10.6001C7.11921 10.0716 6.87319 9.72431 6.64255 9.55821C6.33502 9.34682 5.96599 9.24112 5.59696 9.24112H5.22793V14.7224H0.968705V14.7375ZM5.22793 6.70434H7.02695C7.41136 6.67414 7.78039 6.61374 8.14942 6.52314C8.4262 6.47784 8.67222 6.32685 8.84135 6.10035C9.25651 5.55675 9.19501 4.78666 8.68759 4.31857C8.41082 4.09207 7.87265 3.97127 7.10384 3.97127H5.22793V6.70434ZM0 26.304L4.04396 26.0473C4.13622 26.6965 4.30536 27.1797 4.58213 27.527C5.01266 28.0706 5.64309 28.3575 6.45803 28.3575C7.05771 28.3575 7.53437 28.2216 7.85727 27.9347C8.1648 27.6931 8.34931 27.3458 8.34931 26.9683C8.34931 26.6059 8.18017 26.2586 7.88803 26.0322C7.5805 25.7604 6.85782 25.4886 5.7046 25.247C3.84407 24.8393 2.50633 24.2957 1.72214 23.6011C0.937952 22.9518 0.492041 22.0005 0.522793 20.9888C0.522793 20.2942 0.738061 19.5996 1.13784 19.0258C1.59913 18.3765 2.22956 17.8631 2.983 17.5762C3.79794 17.2289 4.93578 17.0477 6.36578 17.0477C8.11867 17.0477 9.45641 17.3648 10.379 18.0141C11.3016 18.6634 11.8397 19.6751 12.0089 21.0794L8.01104 21.3059C7.9034 20.7019 7.68813 20.264 7.33448 19.9771C6.9962 19.6902 6.51954 19.5543 5.91986 19.5694C5.42782 19.5694 5.05879 19.6751 4.81277 19.8865C4.56675 20.0677 4.42837 20.3395 4.44374 20.6415C4.44374 20.868 4.56675 21.0794 4.75127 21.2153C4.95116 21.3965 5.42782 21.5626 6.18126 21.7136C8.04179 22.1062 9.36415 22.4988 10.1791 22.9065C10.994 23.3142 11.5783 23.8125 11.932 24.4014C12.301 25.0054 12.4855 25.7 12.4855 26.3946C12.4855 27.2401 12.2241 28.0706 11.7475 28.7803C11.2401 29.5202 10.5327 30.094 9.70243 30.4413C8.82598 30.8188 7.71889 31.0151 6.39653 31.0151C4.05933 31.0151 2.44483 30.5772 1.53763 29.6863C0.630427 28.7803 0.12301 27.6629 0 26.304H0Z" fill="white"/>
<path d="M20.4504 25.2469L24.1715 26.3492C23.9716 27.2703 23.5564 28.1461 22.9875 28.9162C22.4647 29.5957 21.7728 30.1242 20.9886 30.4715C20.189 30.8188 19.1742 31 17.9441 31C16.4526 31 15.2225 30.7886 14.2845 30.3658C13.3312 29.943 12.5163 29.188 11.8243 28.1159C11.1324 27.0438 10.7941 25.6697 10.7941 23.9937C10.7941 21.7589 11.3938 20.0375 12.6085 18.8446C13.8233 17.6517 15.53 17.0477 17.7442 17.0477C19.4817 17.0477 20.8348 17.395 21.8343 18.0745C22.8184 18.7691 23.5564 19.8261 24.0485 21.2455L20.2967 22.0609C20.2044 21.7438 20.066 21.4267 19.8815 21.1549C19.6509 20.8378 19.3587 20.5962 19.0051 20.415C18.6514 20.2338 18.2516 20.1583 17.8518 20.1583C16.8831 20.1583 16.1451 20.5358 15.6377 21.3059C15.2532 21.8646 15.0534 22.7555 15.0534 23.9635C15.0534 25.4583 15.284 26.4851 15.7453 27.0438C16.2066 27.6025 16.8524 27.8743 17.6981 27.8743C18.513 27.8743 19.1281 27.6478 19.5432 27.2099C19.9584 26.7418 20.2659 26.0925 20.4504 25.2469ZM29.138 17.2742H33.3819V22.0005H38.0255V17.2742H42.3001V30.7735H38.0255V25.3073H33.3819V30.7735H29.138V17.2742V17.2742Z" fill="white"/>
<path d="M41.7158 24.0239C41.7158 21.8193 42.3462 20.0979 43.5917 18.8748C44.8372 17.6517 46.5901 17.0326 48.8197 17.0326C51.1107 17.0326 52.8636 17.6366 54.1091 18.8446C55.3546 20.0526 55.9696 21.7438 55.9696 23.9182C55.9696 25.5037 55.6928 26.7871 55.1547 27.7988C54.6319 28.7954 53.8169 29.6108 52.8175 30.1544C51.7873 30.7131 50.511 31 48.9888 31C47.4358 31 46.1596 30.7584 45.1447 30.2752C44.0991 29.7618 43.2381 28.9615 42.6692 27.98C42.0387 26.923 41.7158 25.6094 41.7158 24.0239ZM45.9597 24.039C45.9597 25.398 46.2211 26.3794 46.7285 26.9834C47.2359 27.5723 47.9432 27.8743 48.835 27.8743C49.7422 27.8743 50.4495 27.5874 50.957 26.9985C51.4644 26.4096 51.7104 25.3678 51.7104 23.8578C51.7104 22.5894 51.449 21.6532 50.9262 21.0794C50.4034 20.4905 49.6961 20.2036 48.8043 20.2036C48.0201 20.1734 47.2667 20.5056 46.7439 21.0945C46.2211 21.6834 45.9597 22.6649 45.9597 24.039V24.039ZM60.3211 24.0239C60.3211 21.8193 60.9515 20.0979 62.197 18.8748C63.4425 17.6517 65.1954 17.0326 67.4249 17.0326C69.716 17.0326 71.4843 17.6366 72.7144 18.8446C73.9445 20.0526 74.5749 21.7438 74.5749 23.9182C74.5749 25.5037 74.2981 26.7871 73.76 27.7988C73.2372 28.7954 72.4222 29.6108 71.4228 30.1544C70.3926 30.7131 69.1163 31 67.5941 31C66.0411 31 64.7648 30.7584 63.75 30.2752C62.7044 29.7618 61.8434 28.9615 61.2744 27.98C60.644 26.923 60.3211 25.6094 60.3211 24.0239V24.0239ZM64.565 24.039C64.565 25.398 64.8263 26.3794 65.3338 26.9834C65.8412 27.5723 66.5485 27.8743 67.4403 27.8743C68.3475 27.8743 69.0548 27.5874 69.5622 26.9985C70.0697 26.4096 70.3157 25.3678 70.3157 23.8578C70.3157 22.5894 70.0543 21.6532 69.5315 21.0794C69.0087 20.4905 68.3014 20.2036 67.4096 20.2036C66.6254 20.1734 65.8566 20.5056 65.3491 21.0945C64.8263 21.6834 64.565 22.6649 64.565 24.039V24.039Z" fill="white"/>
<path d="M74.129 17.2742H78.3728V27.4515H85V30.7735H74.1136V17.2742H74.129Z" fill="white"/>
<path d="M69.4513 16.4952C73.724 13.3333 75.0415 7.97334 72.3941 4.52342C69.7468 1.07351 64.137 0.84003 59.8643 4.00194C55.5917 7.16385 54.2741 12.5238 56.9215 15.9737C59.5689 19.4236 65.1787 19.6571 69.4513 16.4952Z" fill="white"/>
<path d="M69.4513 16.4952C73.724 13.3333 75.0415 7.97335 72.3941 4.52344C69.7468 1.07352 64.137 0.840044 59.8643 4.00195C55.5917 7.16386 54.2741 12.5238 56.9215 15.9737C59.5689 19.4236 65.1787 19.6571 69.4513 16.4952Z" fill="white"/>
<path fill-rule="evenodd" clip-rule="evenodd" d="M60.0494 4.24311C55.8652 7.33954 54.6542 12.5172 57.1671 15.7919C59.68 19.0666 65.0821 19.3504 69.2663 16.254C73.4504 13.1576 74.6615 7.97987 72.1486 4.70516C69.6356 1.43046 64.2336 1.14669 60.0494 4.24311ZM56.6759 16.1554C53.8941 12.5303 55.3181 6.98814 59.6792 3.76075C64.0404 0.533358 69.8579 0.716535 72.6397 4.34166C75.4216 7.96679 73.9976 13.509 69.6364 16.7364C65.2753 19.9637 59.4578 19.7806 56.6759 16.1554Z" fill="white"/>
<path d="M60.3365 9.25622L61.8741 8.19923L63.7654 10.8417C64.0883 11.2645 64.3343 11.7175 64.5188 12.2158C64.6265 12.5933 64.5957 13.001 64.4419 13.3634C64.242 13.8164 63.9191 14.1939 63.4886 14.4657C62.9812 14.813 62.5507 15.0093 62.1816 15.0697C61.828 15.1301 61.4589 15.0697 61.1207 14.9187C60.7516 14.7375 60.4287 14.4808 60.1827 14.1486L61.5051 12.9406C61.6127 13.1067 61.7511 13.2577 61.9049 13.3785C62.0125 13.454 62.1355 13.4993 62.2739 13.4993C62.3815 13.4993 62.4892 13.454 62.566 13.3936C62.7198 13.303 62.8274 13.1218 62.8121 12.9406C62.7659 12.6839 62.6583 12.4272 62.4892 12.2309L60.3365 9.25622V9.25622ZM64.9494 10.9323L66.3486 9.84511C66.5024 10.0263 66.7023 10.1622 66.9175 10.2377C67.225 10.3283 67.5479 10.2679 67.8093 10.0716C67.9939 9.95081 68.1476 9.78472 68.2091 9.57332C68.3014 9.30152 68.1476 8.99952 67.8708 8.90892C67.8247 8.89382 67.7786 8.87872 67.7325 8.87872C67.5479 8.86362 67.225 8.93912 66.7484 9.13542C65.9642 9.45252 65.3491 9.57332 64.8879 9.52802C64.4419 9.48272 64.0268 9.25622 63.7808 8.87872C63.5962 8.62203 63.504 8.32003 63.4886 8.01803C63.4886 7.67074 63.5809 7.32344 63.7808 7.03654C64.0729 6.62885 64.4266 6.28155 64.8571 6.00975C65.5029 5.57186 66.0718 5.36046 66.5639 5.36046C67.0559 5.36046 67.5172 5.58696 67.9477 6.05505L66.5639 7.12714C66.2871 6.77984 65.7643 6.70435 65.4106 6.97614L65.3645 7.02144C65.2108 7.11204 65.1031 7.24794 65.0416 7.41404C64.9955 7.53484 65.0262 7.67074 65.1031 7.77643C65.1646 7.85193 65.2569 7.91233 65.3645 7.91233C65.4875 7.92743 65.7028 7.86703 66.0103 7.73114C66.7791 7.41404 67.3634 7.23284 67.7632 7.17244C68.1015 7.11204 68.4551 7.14224 68.778 7.27814C69.0702 7.39894 69.3162 7.61034 69.4854 7.86703C69.7006 8.16903 69.8236 8.53143 69.839 8.90892C69.8544 9.30152 69.7468 9.67902 69.5315 10.0112C69.2547 10.4189 68.9011 10.7662 68.4859 11.038C67.6402 11.6118 66.9483 11.8534 66.3947 11.7628C65.795 11.6722 65.303 11.3702 64.9494 10.9323V10.9323Z" fill="#161004"/>
</g>
<defs>
<clipPath id="clip0_1:4">
<rect width="85" height="31" fill="white"/>
</clipPath>
</defs>
</svg>

<svg width="85" height="31" fill="none" xmlns="http://www.w3.org/2000/svg"><g clip-path="url(#a)"><path d="m43.884 10.268 4.044-.257c.092.65.261 1.133.538 1.48.446.544 1.061.815 1.876.815.6 0 1.076-.135 1.4-.422a1.188 1.188 0 0 0 .03-1.903c-.308-.272-1.03-.544-2.168-.785-1.86-.408-3.198-.951-3.983-1.646a3.256 3.256 0 0 1-1.199-2.612c0-.695.215-1.39.615-1.963a4.03 4.03 0 0 1 1.845-1.45c.815-.347 1.953-.528 3.383-.528 1.753 0 3.09.317 4.013.966.923.634 1.476 1.661 1.645 3.065l-3.997.227c-.108-.604-.323-1.042-.677-1.329-.354-.287-.815-.423-1.415-.423-.492 0-.86.106-1.107.302-.23.181-.384.453-.369.755 0 .227.123.438.308.574.2.181.676.347 1.43.498 1.86.393 3.183.785 3.998 1.193.815.408 1.399.906 1.753 1.495a3.69 3.69 0 0 1 .538 2.008c0 .846-.246 1.692-.738 2.401a4.647 4.647 0 0 1-2.045 1.661c-.877.378-1.984.574-3.306.574-2.337 0-3.952-.438-4.86-1.329-.906-.89-1.444-2.008-1.552-3.367ZM.969 14.738v-13.5h7.088c1.307 0 2.322.106 3.014.332a3.18 3.18 0 0 1 1.676 1.239c.446.649.661 1.404.646 2.19a3.597 3.597 0 0 1-1.83 3.26 4.747 4.747 0 0 1-1.492.53 4.28 4.28 0 0 1 1.107.497c.262.212.477.453.677.71.23.257.43.544.6.846l2.06 3.91H9.687L7.411 10.6c-.292-.528-.538-.876-.768-1.042a1.849 1.849 0 0 0-1.046-.317h-.37v5.481H.97v.016Zm4.259-8.034h1.799c.384-.03.753-.09 1.122-.18a1.08 1.08 0 0 0 .692-.424 1.325 1.325 0 0 0-.153-1.781c-.277-.227-.815-.348-1.584-.348H5.228v2.733ZM0 26.304l4.044-.257c.092.65.261 1.133.538 1.48.43.544 1.061.83 1.876.83.6 0 1.076-.135 1.4-.422a1.23 1.23 0 0 0 .491-.967c0-.362-.169-.71-.461-.936-.308-.272-1.03-.543-2.183-.785-1.86-.408-3.199-.951-3.983-1.646a3.255 3.255 0 0 1-1.2-2.612c0-.695.216-1.39.616-1.963a4.03 4.03 0 0 1 1.845-1.45c.815-.347 1.953-.528 3.383-.528 1.753 0 3.09.317 4.013.966.923.65 1.46 1.661 1.63 3.065l-3.998.227c-.108-.604-.323-1.042-.677-1.329-.338-.287-.814-.423-1.414-.408-.492 0-.861.106-1.107.318a.872.872 0 0 0-.37.755c0 .226.124.437.308.573.2.181.677.348 1.43.499 1.86.392 3.183.785 3.998 1.193.815.407 1.4.905 1.753 1.494.369.604.553 1.299.553 1.994 0 .845-.26 1.676-.737 2.385a4.647 4.647 0 0 1-2.046 1.661c-.876.378-1.983.574-3.305.574-2.338 0-3.952-.438-4.86-1.329C.63 28.78.124 27.663 0 26.304Z" fill="#fff"/><path d="m20.45 25.247 3.722 1.102a6.762 6.762 0 0 1-1.184 2.567 5.138 5.138 0 0 1-2 1.555c-.799.348-1.814.529-3.044.529-1.491 0-2.721-.211-3.66-.634-.953-.423-1.768-1.178-2.46-2.25s-1.03-2.446-1.03-4.122c0-2.235.6-3.956 1.814-5.15 1.215-1.192 2.922-1.796 5.136-1.796 1.738 0 3.09.347 4.09 1.027.984.694 1.722 1.751 2.215 3.17l-3.752.816a3.243 3.243 0 0 0-.416-.906 2.428 2.428 0 0 0-2.03-.997c-.968 0-1.706.378-2.213 1.148-.385.559-.585 1.45-.585 2.657 0 1.495.231 2.522.692 3.08.462.56 1.107.831 1.953.831.815 0 1.43-.226 1.845-.664.415-.468.723-1.117.907-1.963Zm8.688-7.973h4.244V22h4.644v-4.726H42.3v13.5h-4.274v-5.467h-4.644v5.466h-4.244V17.274Z" fill="#fff"/><path d="M41.716 24.024c0-2.205.63-3.926 1.876-5.15 1.245-1.222 2.998-1.841 5.228-1.841 2.29 0 4.044.604 5.29 1.812 1.245 1.208 1.86 2.899 1.86 5.073 0 1.586-.277 2.87-.815 3.88a5.707 5.707 0 0 1-2.337 2.356c-1.03.56-2.307.846-3.83.846-1.552 0-2.828-.242-3.843-.725a5.817 5.817 0 0 1-2.476-2.295c-.63-1.057-.953-2.37-.953-3.956Zm4.244.015c0 1.359.261 2.34.768 2.944.508.59 1.215.891 2.107.891.907 0 1.614-.287 2.122-.875.507-.59.753-1.631.753-3.141 0-1.269-.261-2.205-.784-2.779-.523-.588-1.23-.875-2.122-.875a2.625 2.625 0 0 0-2.06.89c-.523.59-.784 1.57-.784 2.945Zm14.361-.015c0-2.205.63-3.926 1.876-5.15 1.245-1.222 2.998-1.841 5.228-1.841 2.291 0 4.06.604 5.29 1.812 1.23 1.208 1.86 2.899 1.86 5.073 0 1.586-.277 2.87-.815 3.88a5.707 5.707 0 0 1-2.337 2.356c-1.03.56-2.307.846-3.829.846-1.553 0-2.83-.242-3.844-.725a5.818 5.818 0 0 1-2.476-2.295c-.63-1.057-.953-2.37-.953-3.956Zm4.244.015c0 1.359.261 2.34.769 2.944.507.59 1.215.891 2.106.891.907 0 1.615-.287 2.122-.875.508-.59.754-1.631.754-3.141 0-1.269-.262-2.205-.785-2.779-.522-.588-1.23-.875-2.121-.875a2.604 2.604 0 0 0-2.06.89c-.524.59-.785 1.57-.785 2.945Z" fill="#fff"/><path d="M74.129 17.274h4.244v10.177H85v3.322H74.114V17.274h.015ZM69.451 16.495c4.273-3.162 5.59-8.522 2.943-11.972-2.647-3.45-8.257-3.683-12.53-.521-4.272 3.162-5.59 8.522-2.942 11.972 2.647 3.45 8.257 3.683 12.53.521Z" fill="#fff"/><path d="M69.451 16.495c4.273-3.162 5.59-8.522 2.943-11.972-2.647-3.45-8.257-3.683-12.53-.521-4.272 3.162-5.59 8.522-2.942 11.972 2.647 3.45 8.257 3.683 12.53.521Z" fill="#fff"/><path fill-rule="evenodd" clip-rule="evenodd" d="M60.05 4.243c-4.185 3.097-5.396 8.274-2.883 11.549 2.513 3.275 7.915 3.558 12.1.462 4.183-3.096 5.395-8.274 2.882-11.549-2.513-3.275-7.915-3.558-12.1-.462Zm-3.374 11.912c-2.782-3.625-1.358-9.167 3.003-12.394C64.04.533 69.858.717 72.64 4.34c2.783 3.626 1.359 9.168-3.003 12.395-4.36 3.228-10.178 3.045-12.96-.58Z" fill="#fff"/><path d="M60.337 9.256 61.873 8.2l1.891 2.643c.323.422.57.875.754 1.374.107.377.077.785-.077 1.147-.2.453-.523.83-.953 1.103-.508.347-.938.543-1.307.604-.354.06-.723 0-1.061-.151a2.557 2.557 0 0 1-.938-.77l1.322-1.208c.108.166.246.317.4.438.108.075.23.12.369.12a.49.49 0 0 0 .292-.105.498.498 0 0 0 .246-.453 1.506 1.506 0 0 0-.323-.71l-2.152-2.975Zm4.612 1.676 1.4-1.087c.153.181.353.317.569.393.307.09.63.03.891-.166.185-.121.339-.287.4-.499a.528.528 0 0 0-.338-.664.455.455 0 0 0-.138-.03c-.185-.015-.508.06-.985.256-.784.318-1.399.438-1.86.393a1.489 1.489 0 0 1-1.107-.65 1.608 1.608 0 0 1-.292-.86c0-.347.092-.695.292-.981a3.841 3.841 0 0 1 1.076-1.027c.646-.438 1.215-.65 1.707-.65s.953.227 1.384.695l-1.384 1.072a.84.84 0 0 0-1.153-.15l-.046.044a.745.745 0 0 0-.323.393.387.387 0 0 0 .061.362.344.344 0 0 0 .262.136c.123.015.338-.045.645-.18.77-.318 1.353-.5 1.753-.56a1.8 1.8 0 0 1 1.015.106c.292.12.538.332.707.589.216.302.339.664.354 1.042.015.393-.092.77-.308 1.102-.276.408-.63.755-1.045 1.027-.846.574-1.538.815-2.091.725a2.265 2.265 0 0 1-1.446-.83Z" fill="#161004"/></g><defs><clipPath id="a"><path fill="#fff" d="M0 0h85v31H0z"/></clipPath></defs></svg>
